X:1
T:Christ Jesus Hath the Power
T:Daniel Brink Towner
T:Christ Jesus Hath the Power
T:Public Domain
T:Public Domain
T:Public Domain
C:Daniel Brink Towner
Z:Public Domain
%%score ( 1 2 ) ( 3 4 )
L:1/8
M:4/4
K:Ab
V:1 treble 
V:2 treble 
V:3 bass 
V:4 bass 
V:1
 [CE] | [CE][EA] [EA]>[EB] [Ac]3 [Ac] | [Ac][GB] [Gd]>[EG] [EA]3 [EA] | %3
w: 1.~Christ|Je- sus hath the pow’r, The|pow- er to for- give, The|
w: 2.~Christ|Je- sus hath the pow’r, The|pow- er to re- new, The|
w: 3.~Christ|Je- sus hath the pow’r, The|pow- er to con- sole, The|
w: 4.~Christ|Je- sus hath the pow’r, The|pow- er to de- stroy, The|
 [EG][GB][GB][GB] A[Ac][Ac][Ac] | [GB][EG][=DA][DF] E3 [_DE] | [CE][EA] [EA]>[EB] [Ac]3 [Ac] | %6
w: pow’r to quick- en whom He will, And|the sin- ner live. Christ Je-|hath the pow’r, O tell it|
w: pow’r to cleanse your heart from sin, And|you whol- ly true. Christ Je-|hath the pow’r For ev- er-|
w: pow’r to car- ry all your care— On|your bur- dens roll. Christ Je-|hath the pow’r, To wipe the|
w: pow’r to bruise your en- e- my Who|your soul an- noy. Christ Je-|hath the pow’r, When on your|
 [Ac][GB] [Gd]>[EG] [EA]3 [EA] | [GB][GB][Ac][Bd] [ce][Ac][FA][FB] | [Ec][Ac] [Gc]>[EB] [EA]3 || %9
w: far and near! O bring to|Him your guilt- y heart, And grace shall|ban- ish fear! * *|
w: more to keep; O none can|pluck you from His hand, Or rob Him|of His sheep! * *|
w: tear a- way; O place in|Him your con- fi- dence! O trust Him,|and o- bey! * *|
w: dy- ing bed, To give your|soul the vic- to- ry, The pow’r to|raise the dead! * *|
"^Refrain" [CE] | [Ec][Ec] [Ec]>[Ec] [Ec]3 [EA] | [Gd][Gd] [Gd]>[Gd] [Gd]3 E | %12
w: |||
w: |||
w: |||
w: |||
 [Gd][Gd] [Gd]>[Gd] [Gd]3 [GB] | [Ge][Ge] [Ge]>[Gd] [Ac]3 E | [Ec][Ec] [Ec]>[Ec] [Ec]3 [EA] | %15
w: |||
w: |||
w: |||
w: |||
 [Gd][Gd] [Gd]>[Gd] [Gd]3 [GB] | [Ae][Ae] [Ae]>[Gf] [Ae]3 [Fd] | [Ac][Ac] [Gc]>[EB] [EA]3 |] %18
w: |||
w: |||
w: |||
w: |||
V:2
 x | x8 | x8 | x4 A x3 | x4 E3 x | x8 | x8 | x8 | x7 || x | x8 | x7 E | x8 | x7 E | x8 | x8 | x8 | %17
w: |||make|sus|||||||||||||
w: |||make|sus|||||||||||||
w: |||Him|sus|||||||||||||
w: |||would|sus|||||||||||||
 x7 |] %18
w: |
w: |
w: |
w: |
V:3
 A, | A,[A,C] [A,C]>[A,D] [A,E]3 [A,E] | [E,E][E,D] [E,B,]>[E,D] [A,,A,C]3 [A,C] | %3
w: ~|~ ~ ~ ~ ~ ~|~ ~ ~ ~ ~ ~|
 [E,B,][E,D][E,D][E,D] [A,C][A,E][A,E][A,E] | [B,E]B,[B,,B,][B,,A,] [E,G,]3 [E,G,] | %5
w: ~ ~ ~ ~ ~ ~ ~ ~|~ ~ ~ ~ ~ ~|
 A,[A,C] [A,C]>[A,D] [A,E]3 [A,E] | [E,E][E,D] [E,B,]>[E,D] [A,,A,C]3 [A,C] | %7
w: ~ ~ ~ ~ ~ ~|~ ~ ~ ~ ~ ~|
 [E,E][E,E][A,E][A,E] [A,E][C,E][D,D][D,A,] | [E,A,][E,C] [E,E]>[E,D] [A,,C]3 || [A,,A,] | %10
w: ~ ~ ~ ~ ~ ~ ~ ~|~ Christ Je- sus hath|the|
 [A,,A,][C,A,] [E,A,]>[E,A,] A,3 [A,C] | [E,E][E,E] [E,E]>[E,E] [E,E]3 [E,D] | %12
w: pow’r, The pow’r of God He|Christ Je- sus hath the pow’r,|
 [E,B,][G,B,] B,>B, [E,B,]3 [E,B,] | [E,B,][E,B,] [E,B,]>[E,E] [A,E]3 [A,,C] | %14
w: My heart sur- ren- der yields!|sus hath the pow’r, I trust|
 [A,,A,][C,A,] [E,A,]>[E,A,] A,3 [A,C] | [E,E][E,E] [E,E]>[E,E] [E,E]3 [D,E] | %16
w: Him ev- er- more! Christ Je-|hath the pow’r, I wor- ship|
 [C,E][C,C] [E,B,]>[E,D] [A,C]3 [D,B,] | [E,A,][E,C] [E,E]>[E,D] [A,,C]3 |] %18
w: and a- dore! * * *||
V:4
 A, | A, x7 | x8 | x8 | x B, x6 | A, x7 | x8 | x8 | x7 || x | x4 A,3 x | x8 | x2 B,>B, x4 | x8 | %14
w: ~|~|||~|~|||||wields!||Christ Je-||
 x4 A,3 x | x8 | x8 | x7 |] %18
w: sus||||

